icons/checkboxfill-24.svg

<svg width="24" height="24" viewBox="0 0 24 24" fill="none" xmlns="http://www.w3.org/2000/svg">
<path fill-rule="evenodd" clip-rule="evenodd" d="M20.25 2C21.2165 2 22 2.7835 22 3.75V20.25C22 21.2165 21.2165 22 20.25 22H3.75C2.7835 22 2 21.2165 2 20.25V3.75C2 2.7835 2.7835 2 3.75 2H20.25ZM17.2803 8.21973C16.9874 7.92683 16.5126 7.92683 16.2197 8.21973L10.25 14.1895L7.78027 11.7197C7.48738 11.4268 7.01262 11.4268 6.71973 11.7197C6.42683 12.0126 6.42683 12.4874 6.71973 12.7803L9.71973 15.7803C10.0126 16.0732 10.4874 16.0732 10.7803 15.7803L17.2803 9.28027C17.5732 8.98738 17.5732 8.51262 17.2803 8.21973Z" fill="#010409"/>
</svg>

<svg xmlns="http://www.w3.org/2000/svg" width="24" height="24" viewBox="0 0 24 24"><path d="M20.25 2c.966 0 1.75.783 1.75 1.75v16.5A1.75 1.75 0 0 1 20.25 22H3.75A1.75 1.75 0 0 1 2 20.25V3.75C2 2.783 2.783 2 3.75 2Zm-2.97 6.22a.749.749 0 0 0-1.06 0l-5.97 5.969-2.47-2.469a.749.749 0 1 0-1.06 1.06l3 3a.749.749 0 0 0 1.06 0l6.5-6.5a.749.749 0 0 0 0-1.06Z"/></svg>
